X:1
T:Du fond de ma pensee
T:Du fond de ma pensee
T:Pierre de Manchicourt
C:Pierre de Manchicourt
%%score [ 1 2 [ 3 4 ] ]
L:1/8
Q:1/4=80
M:2/2
K:C
V:1 treble nm="Superius" snm="S"
V:2 treble nm="Altus" snm="A"
V:3 treble-8 nm="Tenor 1" snm="T 1"
V:4 treble-8 nm="Tenor 2" snm="T 2"
V:1
 B8 | c6 c2 | c2 B2 A2 c2- | c2 BA B4 | c8 | c6 B2 | A4 A4 | G8- | G4 z2 G2 | c2 d2 e3 d | c4 B4 | %11
w: Du|fond de|ma pen- sé- *|* * * e,|au|fond de|tous en-|nuyctz,|_ Dieu,|je t'ay ad- dres-|sé- e|
 z2 c2 c4 | B2 B4 A2- | AG G4 F2 | G8 | z2 G2 c2 c2 | c2 B4 A2 | B4 z2 e2 | e3 d c2 c2 | B2 A4 G2 | %20
w: ma cla-|meur jour _|_ _ et _|nuyct,|en- tends ma|voix plain- tif-|ve, Seig-|neur, _ _ il|est _ _|
 A4 G4- | G4 z2 c2 | c2 B2 c2 G2 | A4 G4 | z2 G4 A2 | c2 B2 A4 | G8- | G4 z2 c2 | c2 c2 cB cd | %29
w: sai- son,|_ ton|o- reil- l'en- ten-|tif- ve|soit à|mon o- rai-|son,|_ si|ta ri- gueur _ _ _|
 e2 e2 d4 | c2 e2 e2 e2 | f3 e d4 | c2 d4 c2 | d2 A2 B4 | z2 B2 B2 B2 | c4 B2 B2 | B2 B2 A2 B2 | %37
w: _ ex- pres-|se en noz pe-|chez _ _|_ _ tu|tiens, Seig- neur,|Seig- neur, qui|est ce qui|de- mou- ra des|
 c8 | z2 e2 e2 e2 | d4 z2 c2 | c2 c2 G2 G2 | G4 G2 G2 | A2 A2 B4 | c4 B4- | B4 z4 | z2 G2 c4 | %46
w: tiens,|si nest tu|point, si|nest tu point se-|ve- re mais|pro- pi- ce'à|mer- chi?|_|Cest pour-|
 A2 c2 B2 A2 | G8- | G4 z2 G2- | GA Bc d2 e2 | d2 c2 B2 A2- | AG G4 F2 | G8 |] %53
w: quoy on re- ve-|re|_ toy|_ _ _ _ _ et|ta loy _ _|_ _ _ aus-|sy.|
V:2
 G8 | G6 G2 | A2 G4 F2 | G8 | G8 | A6 G2 | F2 E4 D2 | E8 | z2 G,2 C3 D | E2 D2 CDEF | G2 G2 G4 | %11
w: Du|fond de|ma pen- sé-|e,|au|fond de|tous _ en-|nuyctz,|Dieu, je t'ay|ad- dres- sé- * * *|e ma cla-|
 E4 z2 G2 | G4 E2 F2 | E2 C2 D4 | z2 D4 G2- | G2 E2 G2 G2 | A2 G2 E4 | E2 G2 G4- | G2 G2 G4- | %19
w: meur, ma|cla- meur jour|_ et nuyct,|en- tends|_ ma voix plain-|tif- * *|ve, Seig- neur,|_ il est|
 G2 F2 E2 E2 | C2 E2 E2 D2 | E3 D C4 | D2 D2 E2 G2 | G2 F2 E4 | D2 E2 G2 F2 | E2 D2 F4 | E2 DC D4 | %27
w: _ sai- son, ton|o- reil'- l'en- ten-|tif- * *|ve soit à mon|o- * rai-|* son, soit à|mon o- rai-||
 E2 E2 A4- | A2 A2 A4 | A2 A3 G G2 | A4 z2 A2 | A2 A2 A4- | A2 G2 A4 |"^#""^#" F2 F2 G4 | %34
w: son, si ta|_ ri- gueur|ex- pres _ _|se en|noz pe- chez|_ tu tiens,|_ Seig- neur,|
 z2 G2 G2 G2 | A4 G2 G2 | G2 G2 F2 G2 | G8 | z2 G2 c2 c2 | B2 G2 G2 G2 | C3 D EF E2- | %41
w: Seig- neur, qui|est ce qui|de- mou- ra des|tiens,|si nest tu|point, si nest tu|point _ _ _ se-|
 E2 D2 E2 E2 | E2 F2 D2 G2- | G2 F2 G2 D2 | G4 E2 G2 | F2 E2 A,4- | A,2 A,2 B,2 D2 | B,2 C2 E4- | %48
w: * ve- re mais|pro- pi- c'à mer-|* * chi? Cest|pour- quoy on|re- ve- re,,|_ toy et ta|loy _ _|
 E2 DC B,2 C2 | B,2 D4 C2 | D2 G4 E2 | F2 E2 D4 | D8 |] %53
w: _ _ _ _ _|* * aus-|sy, et ta|loy _ aus-|sy.|
V:3
 d8 | e6 e2 | f2 d4 c2 | d8 | e8 | c4 d4 | c4 A4 | B2 G2 c2 c2 | d2 e2 f2 e2 | z2 g2 g3 f | %10
w: Du|fond de|ma pen- sé-|e,|au|fond de|tous en-|nuyctz, Dieu, je t'ay|ad- dres- sé- e|ma cla- *|
 e4 z2 d2 | g3 f e4 | d4 c4 | B2 G2 A4 | G4 z2 B2 | e6 e2 | f2 d2 c4 | B2 e2 e4 | z2 c2 e2 e2 | %19
w: meur, ma|cla _ _|meur jour|_ _ et|nuyct, en-|tends ma|voix plain- tif-|ve, Seug- neur,|Seig- neur, il|
 d2 c2 B4 | A4 z4 | z2 g2 g2 f2 | g6 e2 | d4 G2 G2 | A2 c2 B2 A2 | GA Bc d2 c2- | c2 BA B4 | %27
w: est _ sai-|son,|ton o- reil-|l'en- ten-|tif- ve soit|à mon o- *|rai- * * * * *||
 c4 z2 e2 | f6 f2 | e2 c2 d4 | e2 c2 c2 c2 | d4 f4 | e2 d2 e4 | d4 z2 d2 | d2 d2 d2 d2 | f4 d2 e2 | %36
w: son, si|ta ri-|gueur ex- pres-|se en noz pe-|chez tu|tiens, _ Seig-|neur, Seig-|neur, qui de- mou-||
 d2 d2 c2 d2 | e8- | e4 z2 g2 | g2 g2 e4 | z2 A2 B2 c2- | c2 B2 c2 B2 | c2 c2 B2 d2- | d2 c2 d4 | %44
w: ra des tiens, _|_|* si|nest tu point|se- ve- *|* * re mais|pro- pi- c'à mer-|* * chi?,|
 G2 g3 fed | c4 z2 c2 | f4 d2 f2 | e3 d c2 G2 | GA Bc d2 e2 | dc BA G2 g2- | gf e2 d2 c2- | %51
w: Cest pour- * * *|quoy on|re _ _|ve- * * re|toy _ _ _ _ et|ta _ _ _ loy aus-||
 c2 B2 A4 | G8 |] %53
w: |sy.|
V:4
 G8 | C6 C2 | F2 G2 A4 | G8 | c8 | F6 G2 | A4 F4 | E4 z2 C2 |"^#" G2 G2 A2 c2- | c2 B2 c2 c2 | %10
w: Du|fond de|ma pen- sé-|e,|au-|fond de|tous en-|nuyctz, Dieu,|je t'ay ad- dres-|* sé- e ma|
 c4 G4 | z2 c2 c4 | G4 A2 F2 | G2 E2 D4 | G4 z2 G2 | c6 c2 | F2 G2 A4 | E4 z2 C2 | C2 C2 CDEF | %19
w: cla- meur,|ma cla-|meur jour _|et _ _|nuyct, en-|tends ma|voix plain- tif-|ve, Seig-|neur, il est _ _ _|
 G2 A2 E4 | z2 c2 c2 B2 | c2 G2 A4 | G4 C4 | z2 D2 E2 G2 | F2 C2 E2 F2 | C2 G2 F4 | G8 | %27
w: de sai- son,|ton o- reil'en-|ten- * *|tif- ve|soit à mon|o- * * *|rai- * *|son,|
 z2 c2 A2 A2 | F2 F2 FG AB | c2 A2 B4 | A6 A2 | F2 D2 DEFG |"^b" A2 B2 A4 | D2 D2 G4 | %34
w: si ta ri-|gueur ex- pres- * * *||se en|nosz pe- chez _ _ _|_ _ tu|iens, Seig- neur,|
 z2 G2 G2 G2 | F4 G2 E2 | G2 G2 A2 G2 | C4 z2 c2 | c6 c2 | G4 z2 C2 | F2 F2 E2 C2 | G4 C2 E2 | %42
w: Seig- neur, qui|de _ _|_ mou- ra des|tiens, si|n'est tu|point, si|nest tu point se-|ve- re mais|
 A2 F2 G4 | A4 G4 | z2 G2 c4 | A2 c3 B AG |"^#" F2 F2 G2 D2 | E2 C2 CDED | EF G4 C2 | G3 A B2 c2 | %50
w: pro- pi- ce'à|mer- chi?|Cest pour-|quoy on _ _ _|_ re- ve- *|* re toy _ _ _|_ _ _ et|ta _ _ _|
 G2 C2 G2 A2 | F2 G2 D4 | G8 |] %53
w: loy aus- * *||sy.|

